app/dist/images/linkedin.svg

<svg class="contact-icon" viewBox="0 0 512 512"><path d="M186.4 142.4c0 19-15.3 34.5-34.2 34.5-18.9 0-34.2-15.4-34.2-34.5 0-19 15.3-34.5 34.2-34.5 18.9 0 34.2 15.5 34.2 34.5zm-5 58.9h-57.8v186.8h57.8V201.3zm92.4 0h-55.4v186.8h55.4v-98c0-26.3 12.1-41.9 35.2-41.9 21.3 0 31.5 15 31.5 41.9v98H398V269.8c0-50-28.3-74.2-68-74.2-39.6 0-56.3 30.9-56.3 30.9v-25.2h.1z"/></svg>

<svg class="contact-icon" viewBox="0 0 512 512"><path d="M186.4 142.4c0 19-15.3 34.5-34.2 34.5 -18.9 0-34.2-15.4-34.2-34.5 0-19 15.3-34.5 34.2-34.5C171.1 107.9 186.4 123.4 186.4 142.4zM181.4 201.3h-57.8V388.1h57.8V201.3zM273.8 201.3h-55.4V388.1h55.4c0 0 0-69.3 0-98 0-26.3 12.1-41.9 35.2-41.9 21.3 0 31.5 15 31.5 41.9 0 26.9 0 98 0 98h57.5c0 0 0-68.2 0-118.3 0-50-28.3-74.2-68-74.2 -39.6 0-56.3 30.9-56.3 30.9v-25.2H273.8z"/></svg>
